svgs/duotone/signal-stream-slash.svg

<svg xmlns="http://www.w3.org/2000/svg" viewBox="0 0 640 512"><!--! Font Awesome Pro 6.3.0 by @fontawesome - https://fontawesome.com License - https://fontawesome.com/license (Commercial License) Copyright 2023 Fonticons, Inc. --><defs><style>.fa-secondary{opacity:.4}</style></defs><path class="fa-primary" d="M630.8 469.1L38.81 5.113C28.34-3.058 13.31-1.246 5.109 9.191c-8.172 10.44-6.344 25.53 4.078 33.7L601.2 506.9C605.6 510.3 610.8 512 615.1 512c7.125 0 14.17-3.156 18.91-9.187C643.1 492.4 641.2 477.3 630.8 469.1z"/><path class="fa-secondary" d="M96 256c0-25.75 4.246-50.72 12.51-74.26L56.21 140.8C40.45 176.9 32 216.2 32 256c0 65.28 22.44 129.2 63.19 180C101.5 443.9 110.8 448 120.2 448c7.031 0 14.09-2.312 20-7.031c13.8-11.06 16-31.22 4.953-45C112.1 355.9 96 307.5 96 256zM192.4 247.5L150 214.3c-12.1 49.99-2.779 106.2 31.83 145.6C186.6 365.3 193.2 368 199.9 368c5.615 0 11.28-1.969 15.84-5.969c9.963-8.75 10.95-23.91 2.191-33.88C198.6 306.1 190.3 276.4 192.4 247.5zM424.3 149.1c-9.963 8.75-10.95 23.91-2.191 33.88c31.01 35.27 34.38 90.09 10.41 129.8l37.66 29.51c37.48-57.45 33.8-138.9-11.97-191C449.4 142.2 434.3 141.2 424.3 149.1zM544.8 75.96c-11.09-13.78-31.23-15.97-44.98-4.938c-13.8 11.06-16 31.22-4.953 45C527 156.1 544 204.5 544 256c0 42.57-12.22 82.73-34.4 118.1l51.02 39.99C591.3 367.4 608 312.2 608 256C608 190.7 585.6 126.8 544.8 75.96zM320 200c-8.949 0-17.3 2.307-24.81 6.057l79.36 62.2C375.4 264.3 376 260.2 376 256C376 225.1 350.9 200 320 200z"/></svg>

<svg xmlns="http://www.w3.org/2000/svg" viewBox="0 0 640 512"><!-- Font Awesome Pro 6.0.0-alpha2 by @fontawesome - https://fontawesome.com License - https://fontawesome.com/license (Commercial License) --><defs><style>.fa-secondary{opacity:.4}</style></defs><path d="M96 256C96 230.254 100.246 205.281 108.506 181.738L56.209 140.75C40.447 176.896 32 216.178 32 256C32 321.281 54.438 385.219 95.188 436.031C101.516 443.906 110.797 448 120.172 448C127.203 448 134.266 445.688 140.172 440.969C153.969 429.906 156.172 409.75 145.125 395.969C112.984 355.906 96 307.5 96 256ZM192.426 247.512L150.01 214.27C137.012 264.258 147.23 320.471 181.844 359.844C186.582 365.25 193.229 368 199.906 368C205.521 368 211.182 366.031 215.748 362.031C225.711 353.281 226.697 338.125 217.939 328.156C198.551 306.102 190.314 276.406 192.426 247.512ZM424.252 149.971C414.289 158.721 413.303 173.877 422.061 183.846C453.066 219.117 456.443 273.934 432.469 313.652L470.125 343.166C507.602 285.717 503.926 204.221 458.156 152.158C449.43 142.191 434.26 141.223 424.252 149.971ZM544.812 75.965C533.719 62.184 513.578 59.996 499.828 71.027C486.031 82.09 483.828 102.246 494.875 116.027C527.016 156.09 544 204.496 544 256C544 298.572 531.779 338.729 509.6 374.105L560.623 414.096C591.27 367.393 608 312.221 608 256C608 190.715 585.562 126.777 544.812 75.965ZM320 200C311.051 200 302.703 202.307 295.191 206.057L374.553 268.258C375.443 264.301 376 260.223 376 256C376 225.125 350.875 200 320 200Z" class="fa-secondary"/><path d="M630.813 469.11L38.812 5.114C28.343 -3.058 13.312 -1.246 5.109 9.192C-3.063 19.629 -1.235 34.723 9.187 42.894L601.188 506.891C605.594 510.328 610.797 512 615.985 512C623.11 512 630.157 508.844 634.891 502.813C643.063 492.375 641.235 477.282 630.813 469.11Z" class="fa-primary"/></svg>
